assets/img/qr.svg

<svg width="16" height="16" viewBox="0 0 16 16" fill="none" xmlns="http://www.w3.org/2000/svg">
<g opacity="1">
<path d="M12.7498 10.5H10.7498C10.6117 10.5 10.4998 10.6119 10.4998 10.75V12.75C10.4998 12.8881 10.6117 13 10.7498 13H12.7498C12.8878 13 12.9998 12.8881 12.9998 12.75V10.75C12.9998 10.6119 12.8878 10.5 12.7498 10.5Z" fill="#4A5D75"/>
<path d="M10.2498 8.5H8.74976C8.61168 8.5 8.49976 8.61193 8.49976 8.75V10.25C8.49976 10.3881 8.61168 10.5 8.74976 10.5H10.2498C10.3878 10.5 10.4998 10.3881 10.4998 10.25V8.75C10.4998 8.61193 10.3878 8.5 10.2498 8.5Z" fill="#4A5D75"/>
<path d="M14.7502 13H13.2502C13.1122 13 13.0002 13.1119 13.0002 13.25V14.75C13.0002 14.8881 13.1122 15 13.2502 15H14.7502C14.8883 15 15.0002 14.8881 15.0002 14.75V13.25C15.0002 13.1119 14.8883 13 14.7502 13Z" fill="#4A5D75"/>
<path d="M14.75 8.5H13.75C13.6119 8.5 13.5 8.61193 13.5 8.75V9.75C13.5 9.88807 13.6119 10 13.75 10H14.75C14.8881 10 15 9.88807 15 9.75V8.75C15 8.61193 14.8881 8.5 14.75 8.5Z" fill="#4A5D75"/>
<path d="M9.74976 13.5H8.74976C8.61168 13.5 8.49976 13.6119 8.49976 13.75V14.75C8.49976 14.8881 8.61168 15 8.74976 15H9.74976C9.88783 15 9.99976 14.8881 9.99976 14.75V13.75C9.99976 13.6119 9.88783 13.5 9.74976 13.5Z" fill="#4A5D75"/>
<path d="M12.7498 3H10.7498C10.6117 3 10.4998 3.11193 10.4998 3.25V5.25C10.4998 5.38807 10.6117 5.5 10.7498 5.5H12.7498C12.8878 5.5 12.9998 5.38807 12.9998 5.25V3.25C12.9998 3.11193 12.8878 3 12.7498 3Z" fill="#4A5D75"/>
<path d="M14.0002 1.5H9.50024C9.2241 1.5 9.00024 1.72386 9.00024 2V6.5C9.00024 6.77614 9.2241 7 9.50024 7H14.0002C14.2764 7 14.5002 6.77614 14.5002 6.5V2C14.5002 1.72386 14.2764 1.5 14.0002 1.5Z" stroke="#4A5D75" stroke-linecap="round" stroke-linejoin="round"/>
<path d="M5.25049 3H3.25049C3.11242 3 3.00049 3.11193 3.00049 3.25V5.25C3.00049 5.38807 3.11242 5.5 3.25049 5.5H5.25049C5.38856 5.5 5.50049 5.38807 5.50049 5.25V3.25C5.50049 3.11193 5.38856 3 5.25049 3Z" fill="#4A5D75"/>
<path d="M6.50024 1.5H2.00024C1.7241 1.5 1.50024 1.72386 1.50024 2V6.5C1.50024 6.77614 1.7241 7 2.00024 7H6.50024C6.77639 7 7.00024 6.77614 7.00024 6.5V2C7.00024 1.72386 6.77639 1.5 6.50024 1.5Z" stroke="#4A5D75" stroke-linecap="round" stroke-linejoin="round"/>
<path d="M5.25049 10.5H3.25049C3.11242 10.5 3.00049 10.6119 3.00049 10.75V12.75C3.00049 12.8881 3.11242 13 3.25049 13H5.25049C5.38856 13 5.50049 12.8881 5.50049 12.75V10.75C5.50049 10.6119 5.38856 10.5 5.25049 10.5Z" fill="#4A5D75"/>
<path d="M6.50024 9H2.00024C1.7241 9 1.50024 9.22386 1.50024 9.5V14C1.50024 14.2761 1.7241 14.5 2.00024 14.5H6.50024C6.77639 14.5 7.00024 14.2761 7.00024 14V9.5C7.00024 9.22386 6.77639 9 6.50024 9Z" stroke="#4A5D75" stroke-linecap="round" stroke-linejoin="round"/>
</g>
</svg>

<svg width="16" height="16" fill="none" xmlns="http://www.w3.org/2000/svg"><path d="M12.75 10.5h-2a.25.25 0 0 0-.25.25v2c0 .138.112.25.25.25h2a.25.25 0 0 0 .25-.25v-2a.25.25 0 0 0-.25-.25Zm-2.5-2h-1.5a.25.25 0 0 0-.25.25v1.5c0 .138.112.25.25.25h1.5a.25.25 0 0 0 .25-.25v-1.5a.25.25 0 0 0-.25-.25Zm4.5 4.5h-1.5a.25.25 0 0 0-.25.25v1.5c0 .138.112.25.25.25h1.5a.25.25 0 0 0 .25-.25v-1.5a.25.25 0 0 0-.25-.25Zm0-4.5h-1a.25.25 0 0 0-.25.25v1c0 .138.112.25.25.25h1a.25.25 0 0 0 .25-.25v-1a.25.25 0 0 0-.25-.25Zm-5 5h-1a.25.25 0 0 0-.25.25v1c0 .138.112.25.25.25h1a.25.25 0 0 0 .25-.25v-1a.25.25 0 0 0-.25-.25Zm3-10.5h-2a.25.25 0 0 0-.25.25v2c0 .138.112.25.25.25h2a.25.25 0 0 0 .25-.25v-2a.25.25 0 0 0-.25-.25Z" fill="#4A5D75"/><path d="M14 1.5H9.5A.5.5 0 0 0 9 2v4.5a.5.5 0 0 0 .5.5H14a.5.5 0 0 0 .5-.5V2a.5.5 0 0 0-.5-.5Z" stroke="#4A5D75" stroke-linecap="round" stroke-linejoin="round"/><path d="M5.25 3h-2a.25.25 0 0 0-.25.25v2c0 .138.112.25.25.25h2a.25.25 0 0 0 .25-.25v-2A.25.25 0 0 0 5.25 3Z" fill="#4A5D75"/><path d="M6.5 1.5H2a.5.5 0 0 0-.5.5v4.5A.5.5 0 0 0 2 7h4.5a.5.5 0 0 0 .5-.5V2a.5.5 0 0 0-.5-.5Z" stroke="#4A5D75" stroke-linecap="round" stroke-linejoin="round"/><path d="M5.25 10.5h-2a.25.25 0 0 0-.25.25v2c0 .138.112.25.25.25h2a.25.25 0 0 0 .25-.25v-2a.25.25 0 0 0-.25-.25Z" fill="#4A5D75"/><path d="M6.5 9H2a.5.5 0 0 0-.5.5V14a.5.5 0 0 0 .5.5h4.5A.5.5 0 0 0 7 14V9.5a.5.5 0 0 0-.5-.5Z" stroke="#4A5D75" stroke-linecap="round" stroke-linejoin="round"/></svg>
